X:41
T:All Hands High. ThoH.041
Q:1/4=100
M:C
L:1/8
B:Thompson's Compleat Collection of 120 Favourite Hornpipes.
Z:Village Music Project, Simon Wilson 2016
O:England.
K:Bb
BdBG AcA^F|G2[G2G,2][G3G,3]A|BGBd AFAc|B2[b2B2][b3B3]B|
BdBGA2F2|EGECD2F2|GEFG AFGA|[B2B,2][B2B,2][B4B,4]:|
|:Bdfb fdBd|A2c2c4|GBAc BdBG|A2(F2F2)TED|
EGcB FAdc|GBedTc2BA|GBAc dBcA|F2[A2D2][B4D4]:|

